X: 37100
T: Silver Wings Polka
R: barndance
M: 4/4
K: Gmajor
d2|:b>b b>b g2 B2|f2 e2 d4|G>G F>G B2 d2|f2 e2 c4|
f>f f>f e2 e2|f2 f2 g4|a>g f>g a>b a>g|f2 d2 e2 f2|
b>b b>b g2 B2|f2 e2 d4|G>G F>G B2 d2|e4 e3 g|
f>a e>g f2 f2|f>a e>g f2 f2|f>d ^c>d e2 f2|g2 d2 g4:|
|:d4 d>e ^c>e|d4 d>e ^c>e|d2 e2 f2 g2|g2 f2 f4|
=c4 c>B A>B|c4 c>B A>B|c2 d2 e2 f2|f2 B2 B4|
d4 d>e ^c>e|d4 d>e ^c>e|d2 e2 f2 g2|b2 a2 e4|
a>g f>a g2 g2|g>f e>g f2 f2|f>d ^c>d e2 f2|g2 d2 g4:|
|:b>g f>a g2 g2|b>g f>a g2 g2|b>g f>g =c'2 a2|e4e4|
a>g f>a g2 g2|g>f e>g f3 f|f>d ^c>d e2 d2|B2 d2 e2 f2|
b>g f>a g2 g2|b>g f>a g2 g2|b>g f>g =c'2 a2|e4e4|
a>g f>a g2 g2|g>f e>g f2 f>f|f>d ^c>d e2 f2|g2 d2 g4:|

